packages/bpk-svgs/src/icons/window/window--new.svg

<svg xmlns="http://www.w3.org/2000/svg" xmlns:xlink="http://www.w3.org/1999/xlink" viewBox="0 0 24 24"><defs><symbol id="material_system_icon_border" data-name="material_system_icon_border" viewBox="0 0 48 48"><rect width="48" height="48" fill="none"/></symbol></defs><title>new-window</title><g id="icon"><path d="M12.52,11.29h0a1,1,0,0,0,1.41,0L19,6.23V9a1,1,0,0,0,2,0V4a1,1,0,0,0-1-1H15a1,1,0,0,0,0,2h2.4L12.52,9.88A1,1,0,0,0,12.52,11.29ZM19,19a2,2,0,0,1-2,2H5a2,2,0,0,1-2-2V7A2,2,0,0,1,5,5h7V7H5V19H17V12h2"/></g><g id="border"><use id="material_system_icon_border-3" data-name="material_system_icon_border" width="48" height="48" transform="translate(0) scale(0.5)" xlink:href="#material_system_icon_border"/></g></svg>

<svg xmlns="http://www.w3.org/2000/svg" xmlns:xlink="http://www.w3.org/1999/xlink" viewBox="0 0 24 24"><defs><symbol viewBox="0 0 48 48"><path d="M0 0h48v48H0z"/></symbol></defs><path d="M12.52 11.29a1 1 0 0 0 1.41 0L19 6.23V9a1 1 0 0 0 2 0V4a1 1 0 0 0-1-1h-5a1 1 0 0 0 0 2h2.4l-4.88 4.88a1 1 0 0 0 0 1.41zM19 19a2 2 0 0 1-2 2H5a2 2 0 0 1-2-2V7a2 2 0 0 1 2-2h7v2H5v12h12v-7h2"/><use width="48" height="48" transform="scale(.5)" xlink:href="#a"/></svg>
